assets/icons/qr-code.svg

<svg height="24" viewBox="0 0 24 24" width="24" xmlns="http://www.w3.org/2000/svg"><g fill="#fff"><path d="m374.006 6.757a.751.751 0 0 1 -.751-.751v-3.848a.658.658 0 0 0 -.655-.658h-3.848a.751.751 0 1 1 0-1.5h3.848a2.161 2.161 0 0 1 2.158 2.158v3.848a.751.751 0 0 1 -.752.751z" transform="translate(-350.757)"/><path d="m.751 6.757a.751.751 0 0 1 -.751-.751v-3.848a2.161 2.161 0 0 1 2.158-2.158h3.848a.751.751 0 1 1 0 1.5h-3.848a.658.658 0 0 0 -.657.657v3.849a.751.751 0 0 1 -.75.751z"/><path d="m6.006 374.757h-3.848a2.161 2.161 0 0 1 -2.158-2.157v-3.848a.751.751 0 1 1 1.5 0v3.848a.658.658 0 0 0 .657.657h3.849a.751.751 0 0 1 0 1.5z" transform="translate(0 -350.757)"/><path d="m372.6 374.757h-3.848a.751.751 0 1 1 0-1.5h3.848a.658.658 0 0 0 .657-.657v-3.848a.751.751 0 0 1 1.5 0v3.848a2.161 2.161 0 0 1 -2.157 2.157z" transform="translate(-350.757 -350.757)"/><path d="m70.1 72.258h-3.942a2.161 2.161 0 0 1 -2.158-2.158v-3.942a2.161 2.161 0 0 1 2.158-2.158h3.942a2.161 2.161 0 0 1 2.158 2.158v3.942a2.161 2.161 0 0 1 -2.158 2.158zm-3.942-6.758a.658.658 0 0 0 -.657.657v3.943a.658.658 0 0 0 .657.657h3.942a.658.658 0 0 0 .657-.657v-3.942a.658.658 0 0 0 -.657-.658z" transform="translate(-60.997 -60.997)"/><path d="m70.1 280.258h-3.942a2.161 2.161 0 0 1 -2.158-2.158v-3.941a2.161 2.161 0 0 1 2.158-2.159h3.942a2.161 2.161 0 0 1 2.158 2.158v3.942a2.161 2.161 0 0 1 -2.158 2.158zm-3.942-6.758a.658.658 0 0 0 -.657.657v3.943a.658.658 0 0 0 .657.657h3.942a.658.658 0 0 0 .657-.657v-3.941a.658.658 0 0 0 -.657-.657z" transform="translate(-60.997 -259.261)"/><path d="m278.1 72.258h-3.941a2.161 2.161 0 0 1 -2.159-2.158v-3.942a2.161 2.161 0 0 1 2.158-2.158h3.942a2.161 2.161 0 0 1 2.158 2.158v3.942a2.161 2.161 0 0 1 -2.158 2.158zm-3.942-6.758a.658.658 0 0 0 -.657.657v3.943a.658.658 0 0 0 .657.657h3.942a.658.658 0 0 0 .657-.657v-3.942a.658.658 0 0 0 -.657-.657z" transform="translate(-259.261 -60.997)"/><path d="m279.038 275.754h-1.783v-2.534a1.221 1.221 0 0 0 -1.22-1.22h-2.815a1.221 1.221 0 0 0 -1.22 1.22v2.815a1.221 1.221 0 0 0 1.22 1.22h2.534v1.783a1.221 1.221 0 0 0 1.22 1.22h2.065a1.221 1.221 0 0 0 1.22-1.22v-2.065a1.221 1.221 0 0 0 -1.221-1.219zm-5.538-2.254h2.252v2.252h-2.252zm5.255 5.255h-1.5v-1.5h1.5z" transform="translate(-259.261 -259.261)"/><path d="m129.5 130.252h-.751a.751.751 0 0 1 -.749-.752v-.751a.751.751 0 0 1 .751-.751h.751a.751.751 0 0 1 .751.751v.751a.751.751 0 0 1 -.753.752z" transform="translate(-122.001 -122.001)"/><path d="m337.5 130.252h-.751a.751.751 0 0 1 -.749-.752v-.751a.751.751 0 0 1 .751-.751h.751a.751.751 0 0 1 .751.751v.751a.751.751 0 0 1 -.753.752z" transform="translate(-320.252 -122.001)"/><path d="m129.5 338.252h-.751a.751.751 0 0 1 -.749-.752v-.751a.751.751 0 0 1 .751-.751h.751a.751.751 0 0 1 .751.751v.751a.751.751 0 0 1 -.753.752z" transform="translate(-122.001 -320.252)"/></g></svg>

<svg id="qr-code" xmlns="http://www.w3.org/2000/svg" width="24" height="24" viewBox="0 0 24 24">
  <path id="Path_5" data-name="Path 5" d="M374.006,6.757a.751.751,0,0,1-.751-.751V2.158A.658.658,0,0,0,372.6,1.5h-3.848a.751.751,0,1,1,0-1.5H372.6a2.161,2.161,0,0,1,2.158,2.158V6.006A.751.751,0,0,1,374.006,6.757Z" transform="translate(-350.757)" fill="#fff"/>
  <path id="Path_6" data-name="Path 6" d="M.751,6.757A.751.751,0,0,1,0,6.006V2.158A2.161,2.161,0,0,1,2.158,0H6.006a.751.751,0,1,1,0,1.5H2.158a.658.658,0,0,0-.657.657V6.006A.751.751,0,0,1,.751,6.757Z" fill="#fff"/>
  <path id="Path_7" data-name="Path 7" d="M6.006,374.757H2.158A2.161,2.161,0,0,1,0,372.6v-3.848a.751.751,0,1,1,1.5,0V372.6a.658.658,0,0,0,.657.657H6.006a.751.751,0,0,1,0,1.5Z" transform="translate(0 -350.757)" fill="#fff"/>
  <path id="Path_8" data-name="Path 8" d="M372.6,374.757h-3.848a.751.751,0,1,1,0-1.5H372.6a.658.658,0,0,0,.657-.657v-3.848a.751.751,0,0,1,1.5,0V372.6A2.161,2.161,0,0,1,372.6,374.757Z" transform="translate(-350.757 -350.757)" fill="#fff"/>
  <path id="Path_9" data-name="Path 9" d="M70.1,72.258H66.158A2.161,2.161,0,0,1,64,70.1V66.158A2.161,2.161,0,0,1,66.158,64H70.1a2.161,2.161,0,0,1,2.158,2.158V70.1A2.161,2.161,0,0,1,70.1,72.258ZM66.158,65.5a.658.658,0,0,0-.657.657V70.1a.658.658,0,0,0,.657.657H70.1a.658.658,0,0,0,.657-.657V66.158A.658.658,0,0,0,70.1,65.5Z" transform="translate(-60.997 -60.997)" fill="#fff"/>
  <path id="Path_10" data-name="Path 10" d="M70.1,280.258H66.158A2.161,2.161,0,0,1,64,278.1v-3.941A2.161,2.161,0,0,1,66.158,272H70.1a2.161,2.161,0,0,1,2.158,2.158V278.1A2.161,2.161,0,0,1,70.1,280.258ZM66.158,273.5a.658.658,0,0,0-.657.657V278.1a.658.658,0,0,0,.657.657H70.1a.658.658,0,0,0,.657-.657v-3.941a.658.658,0,0,0-.657-.657Z" transform="translate(-60.997 -259.261)" fill="#fff"/>
  <path id="Path_11" data-name="Path 11" d="M278.1,72.258h-3.941A2.161,2.161,0,0,1,272,70.1V66.158A2.161,2.161,0,0,1,274.158,64H278.1a2.161,2.161,0,0,1,2.158,2.158V70.1A2.161,2.161,0,0,1,278.1,72.258ZM274.158,65.5a.658.658,0,0,0-.657.657V70.1a.658.658,0,0,0,.657.657H278.1a.658.658,0,0,0,.657-.657V66.158a.658.658,0,0,0-.657-.657Z" transform="translate(-259.261 -60.997)" fill="#fff"/>
  <path id="Path_12" data-name="Path 12" d="M279.038,275.754h-1.783V273.22a1.221,1.221,0,0,0-1.22-1.22H273.22a1.221,1.221,0,0,0-1.22,1.22v2.815a1.221,1.221,0,0,0,1.22,1.22h2.534v1.783a1.221,1.221,0,0,0,1.22,1.22h2.065a1.221,1.221,0,0,0,1.22-1.22v-2.065A1.221,1.221,0,0,0,279.038,275.754ZM273.5,273.5h2.252v2.252H273.5Zm5.255,5.255h-1.5v-1.5h1.5Z" transform="translate(-259.261 -259.261)" fill="#fff"/>
  <path id="Path_13" data-name="Path 13" d="M129.5,130.252h-.751A.751.751,0,0,1,128,129.5v-.751a.751.751,0,0,1,.751-.751h.751a.751.751,0,0,1,.751.751v.751A.751.751,0,0,1,129.5,130.252Z" transform="translate(-122.001 -122.001)" fill="#fff"/>
  <path id="Path_14" data-name="Path 14" d="M337.5,130.252h-.751A.751.751,0,0,1,336,129.5v-.751a.751.751,0,0,1,.751-.751h.751a.751.751,0,0,1,.751.751v.751A.751.751,0,0,1,337.5,130.252Z" transform="translate(-320.252 -122.001)" fill="#fff"/>
  <path id="Path_15" data-name="Path 15" d="M129.5,338.252h-.751A.751.751,0,0,1,128,337.5v-.751a.751.751,0,0,1,.751-.751h.751a.751.751,0,0,1,.751.751v.751A.751.751,0,0,1,129.5,338.252Z" transform="translate(-122.001 -320.252)" fill="#fff"/>
</svg>
